X: 10084
T: Did You Wash Your Father's Shirt
R: reel
M: 4/4
K: Dmajor
g|fdec dcAg|fdec d2de|fdec dcAB|=cAGE D3g|
fdec dcAg|fdec d2de|fdec dcAB|=cAGE D2AD||
(3EFG AB =cAG2|Addc d3e|fdec dcAB|=cAGE D2AD|
(3EFG AB =cAG2|Addc d3e|fdec dcAB|=cAGE D3||

